!!!COM: Peter Cornelius
!!!CNT: Deutsch
!!!TXO: Deutsch
!!!OTL: In der Ferne
!!!LYR: Cornelius
!!!OPR: An Bertha
!!!OPS: Op. 15
!!!ONM: No. 3
!!!ENC: Ben Fuhrman
!!!YOR: CD Sheet Music, Mid-Romantic German Lieder: The Ultimate Collection.
!!!YOR: CD Sheet Music, LLC 2001
!!!ODT: 1865
!!NB: Only vocal melody encoded.
!!NB: First instance of melodic material only encoded.
!!created: 2/3/10 4:58PM
!!proofed and posted: 2/3/10 4:59PM
**kern	**silbe
*clef G2	*
*k[]	*
*M2/4	*
*MM[Allegretto moderato]	*
=9	=9
4r	.
8r	.
{8g	{die
=10	=10
8g	Blu2m-
8a	-lein
8e	auf
8ee	der
=11	=11
4dd	Hei-
8a	-de,
8g	sie
=12	=12
8g	blu2-
8a	-hen
8e	mir
8cc	zum
=13	=13
4b	Lei-
8f	-de,
8e	der
=14	=14
8cc	dich
8b	ver-
8a	-las-
8e	-sen
=15	=15
4.f#}	musst',}
{8f#	{nur
=16	=16
8g	wenn
8a	ver-
8g	-eint
8ee	wir
=17	=17
4ee	bei-
8a	-de
8a	uns
=18	=18
8ff	ru-
8ee	-hen
8dd	Brust
8a	an
=19	=19
4b}	Brust}
{4gg	{dann
=20	=20
8ff	blu2-
8ee	-hen
8b	mir
8cc	zur
=21	=21
8dd	Lust
8dd#	die
[4ee	Blu2m-
=22	=22
8ee]	|
8aa	-lein
8ff	auf
8a	der
=23	=23
2dd	Hei-
=24	=24
4cc}	-de.}
4r	.
!! Rest to measure 32
=32	=32
4r	.
8r	.
{8g	{Die
=33	=33
8g	Vo2-
8a	-ge-
8e	-lein
8ee	im
=34	=34
4dd	Ha-
8a	-ge,
8g	sie
=35	=35
8g	sin-
8a	-gen
8e	lau-
8cc	-ter
=36	=36
4b	Kla-
8f	-ge,
8e	weil
=37	=37
8cc	du,
8b	mein
8a	Lieb,
8e	nicht
=38	=38
4.f#}	hie;}
{8f#	{doch
=39	=39
8g	ei-
8a	-ne
8g	Wun-
8ee	-der-
=40	=40
4ee	-sa-
8a	-ge,
8a	wenn
=41	=41
8ff	Gott
8ee	dich
8dd	mir
8a	ver-
=42	=42
4b}	-lieh,}
{4gg	{voll
=43	=43
8ff	Ju-
8ee	-bel
8b	sin-
8cc	-gen
=44	=44
8dd	sie,
8dd#	die
[4ee	Vo2g
=45	=45
8ee]	|
8aa	-lain
8ff	in
8a	dem
=46	=46
2dd	Ha
=47	=47
4cc}	-ge.}
4r	.
!! Rest to measure 50
=50	=50
4r	.
8r	.
{8b-	{Die
=51	=51
4.bn	Stern'
8ee	auf
=52	=52
4dd#	Him-
4cc#	-meis-
=53	=53
2ff#	-we-
=54	=54
8b	-gen
8r	.
4b	fu2hr'n
=55	=55
4.b	Lieb'
8gg	der
=56	=56
4ff#	Lieb'
4ee	ent
=57	=57
2dd#	-ge-
=58	=58
8b}	-gen,}
8r	.
{4cc#	{dann
=59	=59
8b	Hei-
8a	-de-
8f#	-blu2-
8cc#	-me-
=60	=60
4b	lein,
4ee	dann
=61	=61
8ccn	blu2ht
8dd	ihr
8a	mir
8dd	zum
=62	=62
8cc	Se-
8a	-gen,
4ff	dann
=63	=63
8ee	Vo2g-
8dd	-lein
16a	stim-
8dd	|
16cc	-met
=64	=64
8b	ein,
8dd	dass
[4gg	strah-
=65	=65
8gg]	|
8ee	-lend
8b	schau-
8cc	-en
=66	=66
8dd	d'rein
8dd#	die
[4ee	Stern'
=67	=67
8ee]	|
8aa	auf
8ff	Him-
8a	-mels-
=68	=68
2dd	-we-
=69	=69
4cc}	-gen,}
4r	.
!! Rest to measure 71
=71	=71
4r	.
8r	.
{8dd	{die
=72	=72
[2gg	Stern'
=73	=73
*M3/4	*
4.gg]	|
8ee	auf
8cc	Him-
8dd	-mels-
=74	=74
*M2/4	*
[2ee	-we-
=75	=75
4ee]	|
4cc}	-gen.}
==	==
*-	*-
